X:125
T: Christinchen (2-27) S. 83
N: P0900
O: Lothringen
S: PINCK, Louis: Verklingende Weisen, Bd 2, Metz 1928]
R: ???, Suche nach Brutigam, Liebe]
M: 6/8
L: 1/8
K: D
A | A2BG2A | FFz3
A | AABG2A | FFz3
A | AAff2e | eeAA2
d | d2GG2B | B2AA2
A | AAff2e | eeAA2
d | d2GG2B | B2AA2

@@@ Tune index: 7675
